!!!OTL: WIR SIND DIE KOENIGE DER WELT
!!!ARE: Europa, Mitteleuropa, Deutschland
!!!SCT: F0020
!!!YEM: Copyright 1995, estate of Helmut Schaffrath.
**kern
*ICvox
*Ivox
*M4/4
*k[f#]
*G:
{8g
8b
=1
4.dd
8dd
8.cc
16b
8cc
8dd
=2
2b
4r}
{4g
=3
4.a
8a
8a
8ee
8dd
8cc
=4
8.cc
16b
4b
4r}
{8g
8b
=5
4.dd
8dd
8.cc
16b
8cc
8dd
=6
2b
4r}
{4g
=7
4.a
8a
8a
8ee
8dd
8cc
=8
8.cc
16b
4b
4r}
{4b
=9
4.a
8a
8b
8a
8b
8cc#
=10
2dd
4r}
{4a
=11
4.ff#
8dd
8cc#
8dd
8ee
8cc#
=12
2dd
4r}
{4dd
=13
4.dd
8cc
8b
8a
8g
8fn
=14
8e
8g
8cc
8dd
8ee
8r}
{4ee
=15
4.dd
8b
8dd
8cc
8b
8a
=16
2g
4r}
==
!!!AGN: Trink - Lied
!!!ONB: ESAC (Essen Associative Code) Database: FINK
!!!AMT: simple quadruple
!!!AIN: vox
!!!EED: Helmut Schaffrath
!!!EEV: 1.0
*-
